static/img/kroki/93f758ce9061ccd2401937abedc50e3d.svg

<?xml version="1.0" encoding="us-ascii" standalone="no"?><svg xmlns="http://www.w3.org/2000/svg" xmlns:xlink="http://www.w3.org/1999/xlink" contentStyleType="text/css" height="152px" preserveAspectRatio="none" style="width:737px;height:152px;" version="1.1" viewBox="0 0 737 152" width="737px" zoomAndPan="magnify"><defs/><g><!--class azure_network_virtual_hub--><g id="elem_azure_network_virtual_hub"><rect codeLine="23" fill="#3D176E" height="39.7891" id="azure_network_virtual_hub" rx="2.5" ry="2.5" style="stroke:#000D19;stroke-width:0.5;" width="272" x="7" y="106.79"/><ellipse cx="22" cy="126.6845" fill="#ADD1B2" rx="11" ry="11" style="stroke:#181818;stroke-width:1.0;"/><path d="M24.9688,132.3252 Q24.3906,132.622 23.75,132.7627 Q23.1094,132.9189 22.4063,132.9189 Q19.9063,132.9189 18.5781,131.2783 Q17.2656,129.622 17.2656,126.497 Q17.2656,123.372 18.5781,121.7158 Q19.9063,120.0595 22.4063,120.0595 Q23.1094,120.0595 23.75,120.2158 Q24.4063,120.372 24.9688,120.6689 L24.9688,123.3877 Q24.3438,122.8095 23.75,122.5439 Q23.1563,122.2627 22.5313,122.2627 Q21.1875,122.2627 20.5,123.3408 Q19.8125,124.4033 19.8125,126.497 Q19.8125,128.5908 20.5,129.6689 Q21.1875,130.7314 22.5313,130.7314 Q23.1563,130.7314 23.75,130.4658 Q24.3438,130.1845 24.9688,129.6064 L24.9688,132.3252 Z " fill="#000000"/><text fill="#D9B8FF" font-family="Helvetica" font-size="17" lengthAdjust="spacing" textLength="230" x="41" y="132.5698">azure_network_virtual_hub</text></g><!--class azure_network_virtual_wan_vpn_connection--><g id="elem_azure_network_virtual_wan_vpn_connection"><rect codeLine="26" fill="#3D176E" height="39.7891" id="azure_network_virtual_wan_vpn_connection" rx="2.5" ry="2.5" style="stroke:#000D19;stroke-width:0.5;" width="416" x="314" y="106.79"/><ellipse cx="329" cy="126.6845" fill="#ADD1B2" rx="11" ry="11" style="stroke:#181818;stroke-width:1.0;"/><path d="M331.9688,132.3252 Q331.3906,132.622 330.75,132.7627 Q330.1094,132.9189 329.4063,132.9189 Q326.9063,132.9189 325.5781,131.2783 Q324.2656,129.622 324.2656,126.497 Q324.2656,123.372 325.5781,121.7158 Q326.9063,120.0595 329.4063,120.0595 Q330.1094,120.0595 330.75,120.2158 Q331.4063,120.372 331.9688,120.6689 L331.9688,123.3877 Q331.3438,122.8095 330.75,122.5439 Q330.1563,122.2627 329.5313,122.2627 Q328.1875,122.2627 327.5,123.3408 Q326.8125,124.4033 326.8125,126.497 Q326.8125,128.5908 327.5,129.6689 Q328.1875,130.7314 329.5313,130.7314 Q330.1563,130.7314 330.75,130.4658 Q331.3438,130.1845 331.9688,129.6064 L331.9688,132.3252 Z " fill="#000000"/><text fill="#D9B8FF" font-family="Helvetica" font-size="17" lengthAdjust="spacing" textLength="374" x="348" y="132.5698">azure_network_virtual_wan_vpn_connection</text></g><!--class azure_network_virtual_wan_vpn_gateway--><g id="elem_azure_network_virtual_wan_vpn_gateway"><rect codeLine="29" fill="#3D176E" height="39.7891" id="azure_network_virtual_wan_vpn_gateway" rx="2.5" ry="2.5" style="stroke:#000D19;stroke-width:0.5;" width="397" x="133.5" y="7"/><ellipse cx="148.5" cy="26.8945" fill="#ADD1B2" rx="11" ry="11" style="stroke:#181818;stroke-width:1.0;"/><path d="M151.4688,32.5352 Q150.8906,32.832 150.25,32.9727 Q149.6094,33.1289 148.9063,33.1289 Q146.4063,33.1289 145.0781,31.4883 Q143.7656,29.832 143.7656,26.707 Q143.7656,23.582 145.0781,21.9258 Q146.4063,20.2695 148.9063,20.2695 Q149.6094,20.2695 150.25,20.4258 Q150.9063,20.582 151.4688,20.8789 L151.4688,23.5977 Q150.8438,23.0195 150.25,22.7539 Q149.6563,22.4727 149.0313,22.4727 Q147.6875,22.4727 147,23.5508 Q146.3125,24.6133 146.3125,26.707 Q146.3125,28.8008 147,29.8789 Q147.6875,30.9414 149.0313,30.9414 Q149.6563,30.9414 150.25,30.6758 Q150.8438,30.3945 151.4688,29.8164 L151.4688,32.5352 Z " fill="#000000"/><text fill="#D9B8FF" font-family="Helvetica" font-size="17" lengthAdjust="spacing" textLength="355" x="167.5" y="32.7798">azure_network_virtual_wan_vpn_gateway</text></g><!--link azure_network_virtual_wan_vpn_gateway to azure_network_virtual_hub--><g id="link_azure_network_virtual_wan_vpn_gateway_azure_network_virtual_hub"><path codeLine="32" d="M294.66,47.22 C261.53,64.36 218.6984,86.5117 185.5884,103.6517 " fill="none" id="azure_network_virtual_wan_vpn_gateway-to-azure_network_virtual_hub" style="stroke:#1A83AF;stroke-width:2.0;"/><polygon fill="#1A83AF" points="180.26,106.41,190.0915,105.8248,184.7003,104.1114,186.4137,98.7203,180.26,106.41" style="stroke:#1A83AF;stroke-width:2.0;"/></g><!--link azure_network_virtual_wan_vpn_gateway to azure_network_virtual_wan_vpn_connection--><g id="link_azure_network_virtual_wan_vpn_gateway_azure_network_virtual_wan_vpn_connection"><path codeLine="33" d="M369.54,47.22 C402.85,64.36 445.9155,86.5235 479.2055,103.6635 " fill="none" id="azure_network_virtual_wan_vpn_gateway-to-azure_network_virtual_wan_vpn_connection" style="stroke:#1A83AF;stroke-width:2.0;"/><polygon fill="#1A83AF" points="484.54,106.41,478.3693,98.7339,480.0946,104.1212,474.7073,105.8465,484.54,106.41" style="stroke:#1A83AF;stroke-width:2.0;"/></g><!--SRC=[hP1FIyD04CNl-HGBFHSQYxQz2B5Gz5B4UXC9a-oaMPBCXjb9GnM_kzQgh8dzS_0wxpTltflSQ5HOrR9L5LO9iWjSOQW6Xaf5pBQTszAo6cGPPED9LrnOafF04YfKjrXkK4mANU8nDsb1w9owyAGRI8irsuRqtbuOo7r8IE9HynASYqJO98sW5qRFaccMTSckwM2imyaLzZ3B6laB6Or6EfnraPEdZlR-8LRc1LNeFsrf1NinUoS-gQCfTuGNibVqMp-OyHwqDhHMbzxiOP-92VdNV9M3jksEpg1q_Xado6XbM-EyrmfdKvrD_eJl3i51kdkTWfU6CIQKrd8HRmnB0sMSDubw3OAter0B56zgYbDBXAaOI-Vlh46mXUr-uJnq-3G8e-auMZmFhm_7_Z-pVhtW7G00]--></g></svg>

<svg xmlns="http://www.w3.org/2000/svg" width="737" height="152" viewBox="0 0 737 152"><rect width="272" height="39.789" x="7" y="106.79" fill="#3D176E" rx="2.5" ry="2.5" style="stroke:#000d19;stroke-width:.5"/><circle cx="22" cy="126.684" r="11" fill="#ADD1B2" style="stroke:#181818;stroke-width:1"/><path d="M24.969 132.325q-.578.297-1.219.438-.64.156-1.344.156-2.5 0-3.828-1.64-1.312-1.657-1.312-4.782t1.312-4.781q1.328-1.656 3.828-1.656.703 0 1.344.156.656.156 1.219.453v2.719q-.625-.579-1.219-.844-.594-.281-1.219-.281-1.343 0-2.031 1.078-.687 1.062-.687 3.156t.687 3.172q.688 1.062 2.031 1.062.625 0 1.219-.265.594-.281 1.219-.86z"/><text x="41" y="132.57" fill="#D9B8FF" font-family="Helvetica" font-size="17" textLength="230">azure_network_virtual_hub</text><rect width="416" height="39.789" x="314" y="106.79" fill="#3D176E" rx="2.5" ry="2.5" style="stroke:#000d19;stroke-width:.5"/><circle cx="329" cy="126.684" r="11" fill="#ADD1B2" style="stroke:#181818;stroke-width:1"/><path d="M331.969 132.325q-.578.297-1.219.438-.64.156-1.344.156-2.5 0-3.828-1.64-1.312-1.657-1.312-4.782t1.312-4.781q1.328-1.656 3.828-1.656.703 0 1.344.156.656.156 1.219.453v2.719q-.625-.579-1.219-.844-.594-.281-1.219-.281-1.344 0-2.031 1.078-.687 1.062-.687 3.156t.687 3.172q.688 1.062 2.031 1.062.625 0 1.219-.265.594-.281 1.219-.86z"/><text x="348" y="132.57" fill="#D9B8FF" font-family="Helvetica" font-size="17" textLength="374">azure_network_virtual_wan_vpn_connection</text><rect width="397" height="39.789" x="133.5" y="7" fill="#3D176E" rx="2.5" ry="2.5" style="stroke:#000d19;stroke-width:.5"/><circle cx="148.5" cy="26.895" r="11" fill="#ADD1B2" style="stroke:#181818;stroke-width:1"/><path d="M151.469 32.535q-.578.297-1.219.438-.64.156-1.344.156-2.5 0-3.828-1.64-1.312-1.657-1.312-4.782t1.312-4.781q1.328-1.656 3.828-1.656.703 0 1.344.156.656.156 1.219.453v2.719q-.625-.578-1.219-.844-.594-.281-1.219-.281-1.344 0-2.031 1.078-.687 1.062-.687 3.156t.687 3.172q.688 1.062 2.031 1.062.625 0 1.219-.265.594-.281 1.219-.86z"/><text x="167.5" y="32.78" fill="#D9B8FF" font-family="Helvetica" font-size="17" textLength="355">azure_network_virtual_wan_vpn_gateway</text><path fill="none" d="M294.66 47.22c-33.13 17.14-75.962 39.292-109.072 56.432" style="stroke:#1a83af;stroke-width:2"/><path fill="#1A83AF" d="m180.26 106.41 9.832-.585-5.392-1.714 1.714-5.39z" style="stroke:#1a83af;stroke-width:2"/><path fill="none" d="M369.54 47.22c33.31 17.14 76.375 39.304 109.665 56.444" style="stroke:#1a83af;stroke-width:2"/><path fill="#1A83AF" d="m484.54 106.41-6.17-7.676 1.725 5.387-5.388 1.726z" style="stroke:#1a83af;stroke-width:2"/></svg>
